X:99
M:6/8
L:1/8
Q:110
K:DDor
f2A A2 d/2e/2|f2A A2 d/2e/2|f2A A2F|A3 d3|B2B A2F|G2G d2d|B2B AF2|E3 D3||

